assets/dude/That–Patsy.svg

<svg width="379" height="103" viewBox="0 0 379 103" fill="none" xmlns="http://www.w3.org/2000/svg">
<path d="M44.5736 0.639893C26.3736 0.639893 0.893555 3.15989 0.893555 15.6199C0.893555 25.4199 2.99355 25.2799 2.99355 37.7399V49.0799C2.99355 49.7799 3.55355 50.3399 4.25355 50.3399H11.8136C12.5136 50.3399 13.0736 49.7799 13.0736 49.0799V47.8199C13.0736 42.9199 16.9936 38.9999 21.8936 38.9999H38.2736C38.9736 38.9999 39.5336 39.5599 39.5336 40.2599V65.4599C39.5336 66.1599 38.9736 66.7199 38.2736 66.7199H24.4136C23.7136 66.7199 23.1536 67.2799 23.1536 67.9799C23.1536 80.4399 21.0536 80.1599 21.0536 89.9599C21.0536 99.7599 36.0336 102.98 44.5736 102.98C53.1136 102.98 68.0936 99.7599 68.0936 89.9599C68.0936 80.1599 65.9936 80.4399 65.9936 67.9799C65.9936 67.2799 65.4336 66.7199 64.7336 66.7199H50.8736C50.1736 66.7199 49.6136 66.1599 49.6136 65.4599V40.2599C49.6136 39.5599 50.1736 38.9999 50.8736 38.9999H67.2536C72.1536 38.9999 76.0736 42.9199 76.0736 47.8199V49.0799C76.0736 49.7799 76.6336 50.3399 77.3336 50.3399H84.8936C85.5936 50.3399 86.1535 49.7799 86.1535 49.0799V37.7399C86.1535 25.2799 88.2536 25.4199 88.2536 15.6199C88.2536 3.15989 62.7736 0.639893 44.5736 0.639893Z" fill="#FF1C31"/>
<path d="M191.022 66.7199H177.162C176.462 66.7199 175.902 66.1599 175.902 65.4599V40.2599C175.902 39.5599 176.462 38.9999 177.162 38.9999H191.022C191.722 38.9999 192.282 38.4399 192.282 37.7399C192.282 25.2799 194.382 25.5599 194.382 15.7599C194.382 5.95989 179.402 2.73989 170.862 2.73989C162.322 2.73989 147.342 5.95989 147.342 15.7599C147.342 25.5599 149.442 25.2799 149.442 37.7399C149.442 38.4399 150.002 38.9999 150.702 38.9999H164.562C165.262 38.9999 165.822 39.5599 165.822 40.2599V47.8199C165.822 48.5199 165.262 49.0799 164.562 49.0799H124.242C123.542 49.0799 122.982 48.5199 122.982 47.8199V40.2599C122.982 39.5599 123.542 38.9999 124.242 38.9999H138.102C138.802 38.9999 139.362 38.4399 139.362 37.7399C139.362 25.2799 141.462 25.5599 141.462 15.7599C141.462 5.95989 126.482 2.73989 117.942 2.73989C109.402 2.73989 94.4223 5.95989 94.4223 15.7599C94.4223 25.5599 96.5223 25.2799 96.5223 37.7399C96.5223 38.4399 97.0823 38.9999 97.7823 38.9999H111.642C112.342 38.9999 112.902 39.5599 112.902 40.2599V65.4599C112.902 66.1599 112.342 66.7199 111.642 66.7199H97.7823C97.0823 66.7199 96.5223 67.2799 96.5223 67.9799C96.5223 80.4399 94.4223 80.1599 94.4223 89.9599C94.4223 99.7599 109.402 102.98 117.942 102.98C126.482 102.98 141.462 99.7599 141.462 89.9599C141.462 80.1599 139.362 80.4399 139.362 67.9799C139.362 67.2799 138.802 66.7199 138.102 66.7199H124.242C123.542 66.7199 122.982 66.1599 122.982 65.4599V57.8999C122.982 57.1999 123.542 56.6399 124.242 56.6399H164.562C165.262 56.6399 165.822 57.1999 165.822 57.8999V65.4599C165.822 66.1599 165.262 66.7199 164.562 66.7199H150.702C150.002 66.7199 149.442 67.2799 149.442 67.9799C149.442 80.4399 147.342 80.1599 147.342 89.9599C147.342 99.7599 162.322 102.98 170.862 102.98C179.402 102.98 194.382 99.7599 194.382 89.9599C194.382 80.1599 192.282 80.4399 192.282 67.9799C192.282 67.2799 191.722 66.7199 191.022 66.7199Z" fill="#FF1C31"/>
<path d="M297.953 67.9799C297.953 67.2799 297.393 66.7199 296.693 66.7199H285.073C284.373 66.7199 283.673 66.7199 282.973 65.5999L266.733 40.3999C266.733 40.3999 266.453 39.9799 266.453 39.5599C266.453 39.2799 266.733 38.9999 267.293 38.9999H270.233C270.933 38.9999 271.493 38.4399 271.493 37.7399C271.493 25.2799 273.593 25.5599 273.593 15.7599C273.593 5.95989 258.613 2.73989 250.073 2.73989C241.533 2.73989 226.553 5.95989 226.553 15.7599C226.553 25.5599 228.653 25.2799 228.653 37.7399C228.653 38.4399 229.213 38.9999 229.913 38.9999H234.533C235.093 38.9999 235.373 39.2799 235.373 39.5599C235.373 39.9799 235.093 40.3999 235.093 40.3999L219.413 65.0399C218.713 66.1599 218.293 66.7199 217.593 66.7199H203.453C202.753 66.7199 202.193 67.2799 202.193 67.9799C202.193 80.4399 200.093 80.1599 200.093 89.9599C200.093 99.7599 215.073 102.98 223.613 102.98C232.153 102.98 247.133 99.7599 247.133 89.9599C247.133 80.1599 245.033 80.4399 245.033 67.9799C245.033 67.2799 244.473 66.7199 243.773 66.7199H230.473C229.913 66.7199 229.493 66.7199 229.493 66.4399C229.493 66.0199 229.773 65.5999 229.773 65.5999L233.273 60.1399C233.973 59.0199 234.393 58.4599 235.093 58.4599H262.253C262.953 58.4599 263.373 59.0199 264.073 60.1399L267.433 65.3199C267.433 65.3199 267.713 65.7399 267.713 66.1599C267.713 66.4399 267.433 66.7199 266.873 66.7199H256.373C255.673 66.7199 255.113 67.2799 255.113 67.9799C255.113 80.4399 253.013 80.1599 253.013 89.9599C253.013 99.7599 267.993 102.98 276.533 102.98C285.073 102.98 300.053 99.7599 300.053 89.9599C300.053 80.1599 297.953 80.4399 297.953 67.9799ZM256.793 50.8999H240.553C239.993 50.8999 239.713 50.6199 239.713 50.3399C239.713 49.9199 239.993 49.4999 239.993 49.4999L245.313 40.6799C246.013 39.5599 246.433 38.9999 247.133 38.9999H250.073C250.773 38.9999 251.193 39.5599 251.893 40.6799L257.353 49.4999C257.353 49.4999 257.633 49.9199 257.633 50.3399C257.633 50.6199 257.353 50.8999 256.793 50.8999Z" fill="#FF1C31"/>
<path d="M334.417 0.639893C316.217 0.639893 290.737 3.15989 290.737 15.6199C290.737 25.4199 292.837 25.2799 292.837 37.7399V49.0799C292.837 49.7799 293.397 50.3399 294.097 50.3399H301.657C302.357 50.3399 302.917 49.7799 302.917 49.0799V47.8199C302.917 42.9199 306.837 38.9999 311.737 38.9999H328.117C328.817 38.9999 329.377 39.5599 329.377 40.2599V65.4599C329.377 66.1599 328.817 66.7199 328.117 66.7199H314.257C313.557 66.7199 312.997 67.2799 312.997 67.9799C312.997 80.4399 310.897 80.1599 310.897 89.9599C310.897 99.7599 325.877 102.98 334.417 102.98C342.957 102.98 357.937 99.7599 357.937 89.9599C357.937 80.1599 355.837 80.4399 355.837 67.9799C355.837 67.2799 355.277 66.7199 354.577 66.7199H340.717C340.017 66.7199 339.457 66.1599 339.457 65.4599V40.2599C339.457 39.5599 340.017 38.9999 340.717 38.9999H357.097C361.997 38.9999 365.917 42.9199 365.917 47.8199V49.0799C365.917 49.7799 366.477 50.3399 367.177 50.3399H374.737C375.437 50.3399 375.997 49.7799 375.997 49.0799V37.7399C375.997 25.2799 378.097 25.4199 378.097 15.6199C378.097 3.15989 352.617 0.639893 334.417 0.639893Z" fill="#FF1C31"/>
</svg>

<svg xmlns="http://www.w3.org/2000/svg" fill="none" viewBox="0 0 379 103"><path fill="#FF1C31" d="M44.574.64C26.374.64.894 3.16.894 15.62c0 9.8 2.1 9.66 2.1 22.12v11.34c0 .7.56 1.26 1.26 1.26h7.56c.7 0 1.26-.56 1.26-1.26v-1.26c0-4.9 3.92-8.82 8.82-8.82h16.38c.7 0 1.26.56 1.26 1.26v25.2c0 .7-.56 1.26-1.26 1.26h-13.86c-.7 0-1.26.56-1.26 1.26 0 12.46-2.1 12.18-2.1 21.98s14.98 13.02 23.52 13.02 23.52-3.22 23.52-13.02c0-9.8-2.1-9.52-2.1-21.98 0-.7-.56-1.26-1.26-1.26h-13.86c-.7 0-1.26-.56-1.26-1.26v-25.2c0-.7.56-1.26 1.26-1.26h16.38c4.9 0 8.82 3.92 8.82 8.82v1.26c0 .7.56 1.26 1.26 1.26h7.56c.7 0 1.26-.56 1.26-1.26V37.74c0-12.46 2.1-12.32 2.1-22.12 0-12.46-25.48-14.98-43.68-14.98zM191.022 66.72h-13.86c-.7 0-1.26-.56-1.26-1.26v-25.2c0-.7.56-1.26 1.26-1.26h13.86c.7 0 1.26-.56 1.26-1.26 0-12.46 2.1-12.18 2.1-21.98s-14.98-13.02-23.52-13.02-23.52 3.22-23.52 13.02c0 9.8 2.1 9.52 2.1 21.98 0 .7.56 1.26 1.26 1.26h13.86c.7 0 1.26.56 1.26 1.26v7.56c0 .7-.56 1.26-1.26 1.26h-40.32c-.7 0-1.26-.56-1.26-1.26v-7.56c0-.7.56-1.26 1.26-1.26h13.86c.7 0 1.26-.56 1.26-1.26 0-12.46 2.1-12.18 2.1-21.98s-14.98-13.02-23.52-13.02-23.52 3.22-23.52 13.02c0 9.8 2.1 9.52 2.1 21.98 0 .7.56 1.26 1.26 1.26h13.86c.7 0 1.26.56 1.26 1.26v25.2c0 .7-.56 1.26-1.26 1.26h-13.86c-.7 0-1.26.56-1.26 1.26 0 12.46-2.1 12.18-2.1 21.98s14.98 13.02 23.52 13.02 23.52-3.22 23.52-13.02c0-9.8-2.1-9.52-2.1-21.98 0-.7-.56-1.26-1.26-1.26h-13.86c-.7 0-1.26-.56-1.26-1.26V57.9c0-.7.56-1.26 1.26-1.26h40.32c.7 0 1.26.56 1.26 1.26v7.56c0 .7-.56 1.26-1.26 1.26h-13.86c-.7 0-1.26.56-1.26 1.26 0 12.46-2.1 12.18-2.1 21.98s14.98 13.02 23.52 13.02 23.52-3.22 23.52-13.02c0-9.8-2.1-9.52-2.1-21.98 0-.7-.56-1.26-1.26-1.26zM297.953 67.98c0-.7-.56-1.26-1.26-1.26h-11.62c-.7 0-1.4 0-2.1-1.12l-16.24-25.2s-.28-.42-.28-.84c0-.28.28-.56.84-.56h2.94c.7 0 1.26-.56 1.26-1.26 0-12.46 2.1-12.18 2.1-21.98s-14.98-13.02-23.52-13.02-23.52 3.22-23.52 13.02c0 9.8 2.1 9.52 2.1 21.98 0 .7.56 1.26 1.26 1.26h4.62c.56 0 .84.28.84.56 0 .42-.28.84-.28.84l-15.68 24.64c-.7 1.12-1.12 1.68-1.82 1.68h-14.14c-.7 0-1.26.56-1.26 1.26 0 12.46-2.1 12.18-2.1 21.98s14.98 13.02 23.52 13.02 23.52-3.22 23.52-13.02c0-9.8-2.1-9.52-2.1-21.98 0-.7-.56-1.26-1.26-1.26h-13.3c-.56 0-.98 0-.98-.28 0-.42.28-.84.28-.84l3.5-5.46c.7-1.12 1.12-1.68 1.82-1.68h27.16c.7 0 1.12.56 1.82 1.68l3.36 5.18s.28.42.28.84c0 .28-.28.56-.84.56h-10.5c-.7 0-1.26.56-1.26 1.26 0 12.46-2.1 12.18-2.1 21.98s14.98 13.02 23.52 13.02 23.52-3.22 23.52-13.02c0-9.8-2.1-9.52-2.1-21.98zm-41.16-17.08h-16.24c-.56 0-.84-.28-.84-.56 0-.42.28-.84.28-.84l5.32-8.82c.7-1.12 1.12-1.68 1.82-1.68h2.94c.7 0 1.12.56 1.82 1.68l5.46 8.82s.28.42.28.84c0 .28-.28.56-.84.56zM334.417.64c-18.2 0-43.68 2.52-43.68 14.98 0 9.8 2.1 9.66 2.1 22.12v11.34c0 .7.56 1.26 1.26 1.26h7.56c.7 0 1.26-.56 1.26-1.26v-1.26c0-4.9 3.92-8.82 8.82-8.82h16.38c.7 0 1.26.56 1.26 1.26v25.2c0 .7-.56 1.26-1.26 1.26h-13.86c-.7 0-1.26.56-1.26 1.26 0 12.46-2.1 12.18-2.1 21.98s14.98 13.02 23.52 13.02 23.52-3.22 23.52-13.02c0-9.8-2.1-9.52-2.1-21.98 0-.7-.56-1.26-1.26-1.26h-13.86c-.7 0-1.26-.56-1.26-1.26v-25.2c0-.7.56-1.26 1.26-1.26h16.38c4.9 0 8.82 3.92 8.82 8.82v1.26c0 .7.56 1.26 1.26 1.26h7.56c.7 0 1.26-.56 1.26-1.26V37.74c0-12.46 2.1-12.32 2.1-22.12 0-12.46-25.48-14.98-43.68-14.98z"/></svg>
